X:1
Q:1/4=120
L:1/8
M:1/4
K:C clef=G2
V:1
%%MIDI program 56
z2|z2|z2|z2|
z2|z2|z2|z2|
z2|z2|z2|z2|
z2|z2|z2|z2|
z2|z2|z2|z2|
z2|z2|z2|z2|
z2|z2|z2|z2|
z2|z2|z2|z2|
z2|z2|z2|z2|
z2|z2|z2|z2|
z2|z2|z2|zG/2G/2|
G/2z/2G/2z/2|G2|z2|z2|
z2|z2|z2|z2|
zG/2G/2|G/2z/2G/2z/2|G2|GG/2G/2|
G/2z/2G/2z/2|G2|z2|z2|
z2|z2|z2|z2|
z2|z2|z2|z2|
z2|z2|z2|z2|
z2|z2|z2|z2|
z2|z2|z2|z2|
z2|z2|z2|z2|
z2|z2|z2|z2|
z2|z2|z2|z2|
z2|z2|zG/2G/2|G/2z/2G/2z/2|
G2|z2|z2|z2|
z2|z2|z2|zG/2G/2|
G/2z/2G/2z/2|G2|GG/2G/2|G/2z/2G/2z/2|
G2|z2|z2|z2|
z2|z2|z2|z2|
z2|z2|z2|z2|
z2|z2|z2|z2|
z2|z2|z2|z2|
z2|z2|z2|z2|
z2|z2|z2|z2|
z2|z2|z2|z2|
z2|z2|z2|z2|
z2|
L:1/8
M:1/4
K:C clef=F4
V:2
%%MIDI program 58
G,,2|C,2-|C,2||G,,2|
C,2-|C,2||G,,2|F,,2-|
F,,2||C,2|F,,2|E,,2|
D,,2|C,,2-|C,,2||G,,2|
C,2-|C,2||G,,2|C,,2-|
C,,2||G,,2|C,2-|C,2|
|
G,,2|C,,2|D,,2|E,,2|
F,,2-|F,,2||C,2|F,,2|
E,,2|D,,2|C,,2-|C,,2|
|
E,,2|G,,2|D,,2|G,,2|
C,,2-|C,,2-|C,,2||G,,2-|
G,,2-|G,,2||G,,2-|G,,2|
|
E,,2|F,,2|E,,2|D,,2|
C,,2|E,,2|A,,2|G,,2-|
G,,2||G,,2|G,,2-|G,,2|
|
G,,2|E,,2|D,,2|C,,2|
G,,2-|G,,2||zC,|C,2-|
C,2||G,,2|C,,2-|C,,2|
|
G,,2|F,,2-|F,,2||C,2|
F,,2|E,,2|D,,2|C,,2-|
C,,2||A,,2|A,,2-|A,,2|
|
G,,2|G,,2-|G,,2||G,,2|
G,,,2-|G,,,2-|G,,,2||C,,2-|
C,,2-|C,,2||G,,2-|G,,2-|
G,,2||G,,2-|G,,2||E,,2|
F,,2|E,,2|D,,2|C,,2|
E,,2|A,,2|G,,2-|G,,2|
|
G,,2|G,,2-|G,,2||G,,2|
E,,2|D,,2|C,,2|G,,2-|
G,,2||zC,|C,2-|C,2|
|
G,,2|C,,2-|C,,2||G,,2|
F,,2-|F,,2||C,2|F,,2|
E,,2|D,,2|C,,2-|C,,2|
|
A,,2|A,,2-|A,,2||G,,2|
G,,2-|G,,2||G,,2|G,,,2-|
G,,,2-|G,,,2||C,,2-|C,,2-|
C,,2||
L:1/8
M:1/4
K:C clef=G2
V:3
%%MIDI program 57
[FB,]2|[E-G,-]2|[EG,]2||C2|
[G-E-]2|[GE]2||[DG]2|[A-C-]2|
[AC]2||F2|[Ac]2|G2|
[DA]2|[C-G-]2|[CG]2||C2|
[E-G-]2|[EG]2||B,2|C2-|
C2||[FD]2|[C-E-]2|[CE]2|
|
[CE]2|C2-|C2||[GE]2|
[C-F-]2|[CF]2||C2|F2|
G2|F2|E2-|E2|
|
[AE]2|[B,G]2|[FC]2|[FB,]2|
[G-C-]2|[G-C-]2|[GC]2||[G-d-][d-G-G]/2[d-G-G]/2|
[d-G-G][dGG]|[cG]2|[B-G-]2|[BG]2|
|
B2|A2|G2|F2|
[E-][E-G]/2[E-G]/2|[E-G][EG]|[GA]2|[G-B-][B-G-G]/2[B-G-G]/2|
[B-G-G][BGG]|[AG]2|[G-B-]2|[GB]2|
|
[GGB]2|[c-G]2|[G-c][GB]|[G-c][GA]|
[B-G-]2|[BG]2||[GB][Gc]|[G-c-]2|
[Gc]2||[EG]2|[G,-E-]2|[G,E]2|
|
[EG,]2|[C-F-]2|[CF]2||[DG]2|
[FA]2|[EG]2|[DF]2|[C-E-]2|
[CE]2||[EA]2|[EA]2|[GB]2|
[Ac]2|[G-B-]2|[GB]2||[FA]2|
[D-G-]2|[DG]2||[DF]2|[E-G-]2|
[E-G-]2|[EG]2||[G-d-][d-G-G]/2[d-G-G]/2|[d-G-G][dGG]|
[cG]2|[B-G-]2|[BG]2||B2|
A2|G2|F2|[E-][E-G]/2[E-G]/2|
[E-G][EG]|[GA]2|[G-B-][B-G-G]/2[B-G-G]/2|[B-G-G][BGG]|
[AG]2|[G-B-]2|[GB]2||[GGB]2|
[c-G]2|[G-c][GB]|[G-c][GA]|[B-G-]2|
[BG]2||[GB][Gc]|[G-c-]2|[Gc]2|
|
[EG]2|[G,-E-]2|[G,E]2||[EG,]2|
[C-F-]2|[CF]2||[DG]2|[FA]2|
[EG]2|[DF]2|[C-E-]2|[CE]2|
|
[EA]2|[EA]2|[GB]2|[Ac]2|
[G-B-]2|[GB]2||[FA]2|[D-G-]2|
[DG]2||[DF]2|[E-G-]2|[E-G-]2|
[EG]2||
L:1/8
M:1/4
K:C clef=G2
V:4
%%MIDI program 73
g2|g2-|g2||e2|
c2|d2|e2|f2-|
f2||a2|c'2|b2|
a2|g2-|g2||e2|
c2|d2|e2|e2-|
e2||g2|g2-|g2|
|
g2|e2|f2|g2|
a2|a2|f2|c'2|
b2|a2|g2-|g2|
|
c'2|b2|a2|b2|
c'2-|c'2-|c'2||b2-|
b2||c'2|d'2-|d'2|
|
e'2|c'2|b2|a2|
g2-|g2||c'2|b2-|
b2||c'2|d'2-|d'2|
|
e'2|c'2|d'2|e'2|
(3:2d'/2e'/2d'/2(3:2e'/2d'/2e'/2|(3:2d'/2e'/2d'/2(3:2e'/2d'/2e'/2|d'e'|e'2-|
e'2||c'2|g2-|g2|
|
g2|a2-|a2||b2|
c'2|b2|a2|g2-|
g2||c'2|c'2|d'2|
e'2|(3:2d'e'/2d'/2(3:2e'/2d'/2|e'/2(3:2d'/2e'/2d'/2(3:2e'/2d'/2|c'2|
b2-|b2-|b2||c'2-|
c'2-|c'2||b2-|b2|
|
c'2|d'2-|d'2||e'2|
c'2|b2|a2|g2-|
g2||c'2|b2-|b2|
|
c'2|d'2-|d'2||e'2|
c'2|d'2|e'2|(3:2d'/2e'/2d'/2(3:2e'/2d'/2e'/2|
(3:2d'/2e'/2d'/2(3:2e'/2d'/2e'/2|d'e'|e'2-|e'2|
|
c'2|g2-|g2||g2|
a2-|a2||b2|c'2|
b2|a2|g2-|g2|
|
c'2|c'2|d'2|e'2|
(3:2d'e'/2d'/2(3:2e'/2d'/2|e'/2(3:2d'/2e'/2d'/2(3:2e'/2d'/2|c'2|b2-|
b2-|b2||c'2-|c'2-|
c'2||
L:1/8
M:1/4
K:C clef=G2
V:5
%%MIDI program 9
z2|z2|z2|z2|
z2|z2|z2|z2|
z2|z2|z2|z2|
z2|z2|z2|z2|
z2|z2|z2|z2|
z2|z2|z2|z2|
z2|z2|z2|z2|
z2|z2|z2|z2|
z2|z2|z2|z2|
z2|z2|z2|z2|
z2|z2|z2|zd'/2d'/2|
d'/2z/2d'/2z/2|d'2|z2|z2|
z2|z2|z2|z2|
zd'/2d'/2|d'/2z/2d'/2z/2|d'2|d'd'/2d'/2|
d'/2z/2d'/2z/2|d'2|z2|z2|
z2|z2|z2|z2|
z2|z2|z2|z2|
z2|z2|z2|z2|
z2|z2|z2|z2|
z2|z2|z2|z2|
z2|z2|z2|z2|
z2|z2|z2|z2|
z2|z2|z2|z2|
z2|z2|zd'/2d'/2|d'/2z/2d'/2z/2|
d'2|z2|z2|z2|
z2|z2|z2|zd'/2d'/2|
d'/2z/2d'/2z/2|d'2|d'd'/2d'/2|d'/2z/2d'/2z/2|
d'2|z2|z2|z2|
z2|z2|z2|z2|
z2|z2|z2|z2|
z2|z2|z2|z2|
z2|z2|z2|z2|
z2|z2|z2|z2|
z2|z2|z2|z2|
z2|z2|z2|z2|
z2|z2|z2|z2|
z2|
L:1/8
M:1/4
K:C clef=F4
V:6
%%MIDI program 47
z2|C,2-|C,2||G,,2|
C,2-|C,2||G,,2|F,,2-|
F,,2||C,2|F,,2|z2|
z2|C,2-|C,2||G,,2|
C,2-|C,2||G,,2|C,2-|
C,2||G,,2|C,2-|C,2|
|
G,,2|C,2|D,2|E,2|
F,2-|F,2||C,2|F,2|
E,2|D,2|C,2-|C,2|
|
E,2|G,,2-|G,,2||G,,2|
C,2-|C,2-|C,2||z2|
z2|z2|z2|z2|
z2|z2|z2|z2|
z2|E,,2|A,,2|G,,2-|
G,,2-|G,,2||z2|z2|
z2|z2|z2|z2|
z2|z2|z2|C,2-|
C,2||G,,2|C,2|D,2|
E,2|F,2-|F,2||C,2|
F,2|E,2|D,2|C,2-|
C,2||A,,2|A,,2-|A,,2|
|
G,,2|G,,2-|G,,2||D,2|
G,,2-|G,,2-|G,,2||C,/4C,/4C,/4C,/4C,/4C,/4C,/4C,/4|
C,/4C,/4C,/4C,/4C,/4C,/4C,/4C,/4|C,/4C,/4C,/4C,/4C,/4C,/4C,/4C,/4|z2|z2|
z2|z2|z2|z2|
z2|z2|z2|z2|
E,,2|A,,2|G,,2-|G,,2-|
G,,2||z2|z2|z2|
z2|z2|z2|z2|
z2|z2|C,2-|C,2|
|
G,,2|C,2|D,2|E,2|
F,2-|F,2||C,2|F,2|
E,2|D,2|C,2-|C,2|
|
A,,2|A,,2-|A,,2||G,,2|
G,,2-|G,,2||D,2|G,,2-|
G,,2-|G,,2||C,/4C,/4C,/4C,/4C,/4C,/4C,/4C,/4|C,/4C,/4C,/4C,/4C,/4C,/4C,/4C,/4|
C,/4C,/4C,/4C,/4C,/4C,/4C,/4C,/4|
L:1/8
M:1/4
K:C clef=F4
V:7
%%MIDI program 66
D2|C2-|C2||G,2|
C2|B,2|^A,2|A,2-|
A,2||C2|F2|E2|
F2|E2-|E2||G,2|
C2|D2|G,2|C2-|
C2||G,2|C2-|C2|
|
G,2|G,2-|G,2||^A,2|
A,2-|A,2||A,2|C2|
B,2|A,2|G,2-|G,2|
|
C2|D2|D2|F2|
E2-|E2-|E2||D2-|
D2||E2|F2-|F2|
|
G2|F2|E2|D2|
[C-]2|[CE,]2|A,2|[D-G,-]2|
[DG,]2||E2|F2-|F2|
|
E2|E2|D2|C2|
D2-|D2||G,C|C2-|
C2||C2|C2|B,2|
^A,2|A,2-|A,2||B,2|
C2|B,2|A,2|G,2-|
G,2||C2|C2|D2|
E2|D2-|D2||C2|
G,2-|G,2-|G,2||C2-|
C2-|C2||D2-|D2|
|
E2|F2-|F2||G2|
F2|E2|D2|[C-]2|
[CE,]2|A,2|[D-G,-]2|[DG,]2|
|
E2|F2-|F2||E2|
E2|D2|C2|D2-|
D2||G,C|C2-|C2|
|
C2|C2|B,2|^A,2|
A,2-|A,2||B,2|C2|
B,2|A,2|G,2-|G,2|
|
C2|C2|D2|E2|
D2-|D2||C2|G,2-|
G,2-|G,2||C2-|C2-|
C2||
L:1/8
M:1/4
K:C clef=G2
V:8
%%MIDI program 71
G2|G2-|G2||E2|
C2|D2|E2|F2-|
F2||A2|c2|B2|
A2|G2-|G2||E2|
C2|D2|E2|E2-|
E2||G2|G2-|G2|
|
G2|E2|F2|G2|
A2|A2|F2|c2|
B2|A2|G2-|G2|
|
c2|B2|A2|B2|
c2-|c2-|c2||B2-|
B2||c2|d2-|d2|
|
e2|c2|B2|A2|
G2-|G2||c2|B2-|
B2||c2|d2-|d2|
|
e2|c2|cd|ec|
d2-|d2||de|e2-|
e2||c2|G2-|G2|
|
G2|A2-|A2||B2|
c2|B2|A2|G2-|
G2||c2|c2|d2|
e2|d2-|d2||c2|
B2-|B2-|B2||c2-|
c2-|c2||B2-|B2|
|
c2|d2-|d2||e2|
c2|B2|A2|G2-|
G2||c2|B2-|B2|
|
c2|d2-|d2||e2|
c2|cd|ec|d2-|
d2||de|e2-|e2|
|
c2|G2-|G2||G2|
A2-|A2||B2|c2|
B2|A2|G2-|G2|
|
c2|c2|d2|e2|
d2-|d2||c2|B2-|
B2-|B2||c2-|c2-|
c2||
L:1/8
M:1/4
K:C clef=G2
V:9
%%MIDI program 73
g2|g2-|g2||e2|
c2|d2|e2|f2-|
f2||a2|c'2|b2|
a2|g2-|g2||e2|
c2|d2|e2|e2-|
e2||g2|g2-|g2|
|
g2|e2|f2|g2|
a2|a2|f2|c'2|
b2|a2|g2-|g2|
|
c'2|b2|a2|b2|
c'2-|c'2-|c'2||b2-|
b2||c'2|d'2-|d'2|
|
e'2|c'2|b2|a2|
g2-|g2||c'2|b2-|
b2||c'2|d'2-|d'2|
|
e'2|c'2|d'2|e'2|
(3:2d'/2e'/2d'/2(3:2e'/2d'/2e'/2|(3:2d'/2e'/2d'/2(3:2e'/2d'/2e'/2|d'e'|e'2-|
e'2||c'2|g2-|g2|
|
g2|a2-|a2||b2|
c'2|b2|a2|g2-|
g2||c'2|c'2|d'2|
e'2|(3:2d'e'/2d'/2(3:2e'/2d'/2|e'/2(3:2d'/2e'/2d'/2(3:2e'/2d'/2|c'2|
b2-|b2-|b2||c'2-|
c'2-|c'2||b2-|b2|
|
c'2|d'2-|d'2||e'2|
c'2|b2|a2|g2-|
g2||c'2|b2-|b2|
|
c'2|d'2-|d'2||e'2|
c'2|d'2|e'2|(3:2d'/2e'/2d'/2(3:2e'/2d'/2e'/2|
(3:2d'/2e'/2d'/2(3:2e'/2d'/2e'/2|d'e'|e'2-|e'2|
|
c'2|g2-|g2||g2|
a2-|a2||b2|c'2|
b2|a2|g2-|g2|
|
c'2|c'2|d'2|e'2|
(3:2d'e'/2d'/2(3:2e'/2d'/2|e'/2(3:2d'/2e'/2d'/2(3:2e'/2d'/2|c'2|b2-|
b2-|b2||c'2-|c'2-|
c'2||
L:1/8
M:1/4
K:C clef=G2
V:10
%%MIDI program 57
[FB,]2|[E-G,-]2|[EG,]2||C2|
[G-E-]2|[GE]2||[DG]2|[A-C-]2|
[AC]2||F2|[Ac]2|G2|
[DA]2|[C-G-]2|[CG]2||C2|
[E-G-]2|[EG]2||B,2|C2-|
C2||[FD]2|[C-E-]2|[CE]2|
|
[CE]2|C2-|C2||[GE]2|
[C-F-]2|[CF]2||C2|F2|
G2|F2|E2-|E2|
|
[AE]2|[B,G]2|[FC]2|[FB,]2|
[G-C-]2|[G-C-]2|[GC]2||[G-d-][d-G-G]/2[d-G-G]/2|
[d-G-G][dGG]|[cG]2|[B-G-]2|[BG]2|
|
B2|A2|G2|F2|
[E-][E-G]/2[E-G]/2|[E-G][EG]|[GA]2|[G-B-][B-G-G]/2[B-G-G]/2|
[B-G-G][BGG]|[AG]2|[G-B-]2|[GB]2|
|
[GGB]2|[c-G]2|[G-c][GB]|[G-c][GA]|
[B-G-]2|[BG]2||[GB][Gc]|[G-c-]2|
[Gc]2||[EG]2|[G,-E-]2|[G,E]2|
|
[EG,]2|[C-F-]2|[CF]2||[DG]2|
[FA]2|[EG]2|[DF]2|[C-E-]2|
[CE]2||[EA]2|[EA]2|[GB]2|
[Ac]2|[G-B-]2|[GB]2||[FA]2|
[D-G-]2|[DG]2||[DF]2|[E-G-]2|
[E-G-]2|[EG]2||[G-d-][d-G-G]/2[d-G-G]/2|[d-G-G][dGG]|
[cG]2|[B-G-]2|[BG]2||B2|
A2|G2|F2|[E-][E-G]/2[E-G]/2|
[E-G][EG]|[GA]2|[G-B-][B-G-G]/2[B-G-G]/2|[B-G-G][BGG]|
[AG]2|[G-B-]2|[GB]2||[GGB]2|
[c-G]2|[G-c][GB]|[G-c][GA]|[B-G-]2|
[BG]2||[GB][Gc]|[G-c-]2|[Gc]2|
|
[EG]2|[G,-E-]2|[G,E]2||[EG,]2|
[C-F-]2|[CF]2||[DG]2|[FA]2|
[EG]2|[DF]2|[C-E-]2|[CE]2|
|
[EA]2|[EA]2|[GB]2|[Ac]2|
[G-B-]2|[GB]2||[FA]2|[D-G-]2|
[DG]2||[DF]2|[E-G-]2|[E-G-]2|
[EG]2||
L:1/8
M:1/4
K:C clef=F4
V:11
%%MIDI program 58
G,,2|C,2-|C,2||G,,2|
C,2-|C,2||G,,2|F,,2-|
F,,2||C,2|F,,2|E,,2|
D,,2|C,,2-|C,,2||G,,2|
C,2-|C,2||G,,2|C,,2-|
C,,2||G,,2|C,2-|C,2|
|
G,,2|C,,2|D,,2|E,,2|
F,,2-|F,,2||C,2|F,,2|
E,,2|D,,2|C,,2-|C,,2|
|
E,,2|G,,2|D,,2|G,,2|
C,,2-|C,,2-|C,,2||G,,2-|
G,,2-|G,,2||G,,2-|G,,2|
|
E,,2|F,,2|E,,2|D,,2|
C,,2|E,,2|A,,2|G,,2-|
G,,2||G,,2|G,,2-|G,,2|
|
G,,2|E,,2|D,,2|C,,2|
G,,2-|G,,2||zC,|C,2-|
C,2||G,,2|C,,2-|C,,2|
|
G,,2|F,,2-|F,,2||C,2|
F,,2|E,,2|D,,2|C,,2-|
C,,2||A,,2|A,,2-|A,,2|
|
G,,2|G,,2-|G,,2||G,,2|
G,,,2-|G,,,2-|G,,,2||C,,2-|
C,,2-|C,,2||G,,2-|G,,2-|
G,,2||G,,2-|G,,2||E,,2|
F,,2|E,,2|D,,2|C,,2|
E,,2|A,,2|G,,2-|G,,2|
|
G,,2|G,,2-|G,,2||G,,2|
E,,2|D,,2|C,,2|G,,2-|
G,,2||zC,|C,2-|C,2|
|
G,,2|C,,2-|C,,2||G,,2|
F,,2-|F,,2||C,2|F,,2|
E,,2|D,,2|C,,2-|C,,2|
|
A,,2|A,,2-|A,,2||G,,2|
G,,2-|G,,2||G,,2|G,,,2-|
G,,,2-|G,,,2||C,,2-|C,,2-|
C,,2||


